img/vk-icon.svg

<svg width="22" height="22" viewBox="0 0 22 22" fill="none" xmlns="http://www.w3.org/2000/svg">
<path fill-rule="evenodd" clip-rule="evenodd" d="M9.28352 0H12.7165C15.966 0 17.5908 0 18.8319 0.632402C19.9237 1.18868 20.8113 2.0763 21.3676 3.16806C22 4.40921 22 6.03398 22 9.28352V12.7165C22 15.966 22 17.5908 21.3676 18.8319C20.8113 19.9237 19.9237 20.8113 18.8319 21.3676C17.5908 22 15.966 22 12.7165 22H9.28352C6.03398 22 4.40921 22 3.16806 21.3676C2.0763 20.8113 1.18868 19.9237 0.632402 18.8319C0 17.5908 0 15.966 0 12.7165V9.28352C0 6.03398 0 4.40921 0.632402 3.16806C1.18868 2.0763 2.0763 1.18868 3.16806 0.632402C4.40921 0 6.03398 0 9.28352 0ZM16.3251 12.1362C16.2326 12.3718 16.2705 12.6043 16.4398 12.8339C16.6556 13.0762 16.8944 13.3226 17.1359 13.5717C17.8503 14.3088 18.5873 15.069 18.8154 15.8138C18.8958 16.2784 18.513 16.4513 18.1244 16.4513L16.0311 16.4857C15.9001 16.5143 15.7475 16.5 15.5733 16.4426C14.97 16.2441 14.5759 15.7682 14.1785 15.2883C13.9235 14.9804 13.6671 14.6707 13.3531 14.4317C13.1967 14.3125 13.0079 14.2313 12.8258 14.3282C12.4145 14.5443 12.4041 14.9601 12.3935 15.3812C12.3855 15.6995 12.3774 16.0209 12.1962 16.2614C11.9568 16.527 11.4927 16.4933 11.114 16.4658C11.0078 16.4581 10.9083 16.4509 10.8224 16.4509C6.90562 16.5914 4.35192 10.9767 3.18496 8.07995C3.04537 7.68855 3.26547 7.49428 3.6593 7.49428L5.89983 7.47715C6.1393 7.51896 6.36658 7.66062 6.45585 7.90771C6.79134 8.72834 8.01256 11.6886 8.76989 11.6886C9.52723 11.6886 9.33773 8.67222 9.08059 8.10595C8.94429 7.91076 8.7127 7.7873 8.38557 7.73568C8.31471 7.72434 8.3284 7.65539 8.42655 7.52903C8.7699 7.08702 10.8742 6.95632 11.7956 7.1759C11.9777 7.22405 12.1558 7.30957 12.2371 7.4989C12.4214 7.93084 12.3791 8.65808 12.3363 9.39434C12.2832 10.3068 12.2293 11.2331 12.6048 11.6285C12.7498 11.6664 12.8292 11.6708 12.9565 11.5682C13.924 10.5926 14.5841 9.07458 15.1236 7.83067C15.1929 7.64781 15.3037 7.55793 15.475 7.51624C15.773 7.51624 16.0954 7.51757 16.4279 7.51895C17.1247 7.52183 17.8656 7.5249 18.517 7.51624C19.5248 7.51624 18.0665 9.58333 17.0835 10.9766C16.7006 11.5195 16.3898 11.96 16.3251 12.1362Z" fill="#FDFDFD"/>
</svg>

<svg xmlns="http://www.w3.org/2000/svg" width="22" height="22" fill="none" xmlns:v="https://vecta.io/nano"><path fill-rule="evenodd" d="M9.284 0h3.433c3.249 0 4.874 0 6.115.632a5.8 5.8 0 0 1 2.536 2.536C22 4.409 22 6.034 22 9.284v3.433c0 3.249 0 4.874-.632 6.115a5.8 5.8 0 0 1-2.536 2.536C17.591 22 15.966 22 12.717 22H9.284c-3.25 0-4.874 0-6.115-.632a5.8 5.8 0 0 1-2.536-2.536C0 17.591 0 15.966 0 12.717V9.284c0-3.25 0-4.874.632-6.115A5.8 5.8 0 0 1 3.168.632C4.409 0 6.034 0 9.284 0zm7.042 12.136c-.092.236-.055.468.115.698l.696.738c.714.737 1.451 1.497 1.68 2.242.08.465-.302.637-.691.637l-2.093.034c-.131.029-.284.014-.458-.043-.603-.198-.997-.674-1.395-1.154-.255-.308-.511-.618-.825-.857-.156-.119-.345-.2-.527-.103-.411.216-.422.632-.432 1.053-.008.318-.016.64-.197.88-.239.266-.703.232-1.082.204l-.292-.015c-3.917.14-6.47-5.474-7.637-8.371-.14-.391.081-.586.474-.586L5.9 7.477c.239.042.467.183.556.431.335.821 1.557 3.781 2.314 3.781s.568-3.016.311-3.583c-.136-.195-.368-.319-.695-.37-.071-.011-.057-.08.041-.207.343-.442 2.448-.573 3.369-.353.182.048.36.134.441.323.184.432.142 1.159.099 1.895-.053.912-.107 1.839.268 2.234.145.038.224.042.352-.06.967-.976 1.628-2.494 2.167-3.738a.46.46 0 0 1 .351-.314l.953.003 2.089-.003c1.008 0-.45 2.067-1.433 3.46-.383.543-.694.983-.758 1.16z" fill="#fdfdfd"/></svg>
